X:1800
T:Bourr\'ee
R:Bourr\'ee
O:France
M:3/4
K:D
FG|A2d2F2|A4GF|EFGABA|F2D2FG|\
A2d2F2|A4GF|EFGABc|d4::\
K:G
AB|cBAGFE|E2D2D2|F2G2A2|A2G2AB|\
cBAGFE|E2D2D2|F2G2A2|G4:|


